X:94
T: Der heimkehrende Soldat
N: Q0103K
O: Osteuropa, UdSSR, Ukraine
N: Verzierung. Pause am Ende der 2. Zeile korrigiert.
N: Anhaengsel; fuenfte und letzte Zeile = Refrain.
R: Ballade, Ehe, Betrug
M: 6/8
L: 1/16
K: G
D2 | G2G2G2G2A2B2 | B4A2A2B2c2 | B6z4
D2 | G2G2G2G2A2B2 | B4A2A3Bc2 | B6z2
G2B2 | d2d2d2e4d2 | d4cBc4
d2 | B4B2d4cB | B4A2A2z2
d2 | B2B2B2A2ABc2 | B6z4
GB | d2d2d2e4d2 | d4cBc4
d2 | B4B2d4cB | B4A2A2z2
d2 | B2B2B2A2ABc2 | B3cB2A2A2c2 | B6z4

@@@ Tune index: 1387
